X:171
T:Morgan's Whim
M: C|
L:1/8
B:Thompson's Compleat Collection of 200 Favourite Country Dances, vol. 3 (London, 1773)
Z:Transcribed and edited by Flynn Titford-Mock, 2007
Z:abc's:AK/Fiddler's Companion
K:A
e3d {d}c3B | .A(c"tr"BA) .G(F"tr"ED) | (CEA).c (EGB).d | (cA)(ec) "tr"(c2B2) :|
|: B3A .G(EGB) | e3d .c(Ace) | a3=g .f(def) | .e(dcB) (B2A2) :|

